test.xmp
<?xpacket begin="﻿" id="W5M0MpCehiHzreSzNTczkc9d"?>
<x:xmpmeta xmlns:x="adobe:ns:meta/">
  <rdf:RDF xmlns:rdf="http://www.w3.org/1999/02/22-rdf-syntax-ns#">
    <rdf:Description
      xmlns:crs="http://ns.adobe.com/camera-raw-settings/1.0/"
      crs:Version="17.5"
      crs:ProcessVersion="15.4"
      crs:ProfileName="Adobe Color"
      crs:Look=""
      crs:HasSettings="True"
      crs:PresetType="Normal"
      crs:Cluster="film-recipe-wizard"
      crs:ClusterGroup="film-recipe-wizard"
      crs:PresetSubtype="Normal"
      crs:SupportsAmount="True"
      crs:SupportsAmount2="True"
      crs:SupportsColor="True"
      crs:SupportsMonochrome="True"
      crs:Name="Cinematic Cool Portrait">
      <crs:Name>
        <rdf:Alt>
          <rdf:li xml:lang="x-default">Cinematic Cool Portrait</rdf:li>
        </rdf:Alt>
      </crs:Name>
      <crs:Group>
        <rdf:Alt>
          <rdf:li xml:lang="x-default">Film Recipe Wizard</rdf:li>
        </rdf:Alt>
      </crs:Group>
      <crs:Treatment>Color</crs:Treatment>
      <crs:Temperature>4500</crs:Temperature>
      <crs:Tint>-10</crs:Tint>
      <crs:Contrast2012>5</crs:Contrast2012>
      <crs:Highlights2012>-5</crs:Highlights2012>
      <crs:Shadows2012>-10</crs:Shadows2012>
      <crs:Whites2012>3</crs:Whites2012>
      <crs:Blacks2012>-2</crs:Blacks2012>
      <crs:Clarity2012>8</crs:Clarity2012>
      <crs:Vibrance>-5</crs:Vibrance>
      <crs:Saturation>-7</crs:Saturation>
<crs:ToneCurvePV2012>
        <rdf:Seq>
          <rdf:li>0, 0</rdf:li>
          <rdf:li>64, 56</rdf:li>
          <rdf:li>128, 128</rdf:li>
          <rdf:li>192, 200</rdf:li>
          <rdf:li>255, 255</rdf:li>
        </rdf:Seq>
      </crs:ToneCurvePV2012>
      <crs:HueAdjustmentRed>0</crs:HueAdjustmentRed>
      <crs:HueAdjustmentOrange>0</crs:HueAdjustmentOrange>
      <crs:HueAdjustmentYellow>-30</crs:HueAdjustmentYellow>
      <crs:HueAdjustmentGreen>-20</crs:HueAdjustmentGreen>
      <crs:HueAdjustmentAqua>0</crs:HueAdjustmentAqua>
      <crs:HueAdjustmentBlue>0</crs:HueAdjustmentBlue>
      <crs:HueAdjustmentPurple>0</crs:HueAdjustmentPurple>
      <crs:HueAdjustmentMagenta>0</crs:HueAdjustmentMagenta>
      <crs:SaturationAdjustmentRed>5</crs:SaturationAdjustmentRed>
      <crs:SaturationAdjustmentOrange>3</crs:SaturationAdjustmentOrange>
      <crs:SaturationAdjustmentYellow>-10</crs:SaturationAdjustmentYellow>
      <crs:SaturationAdjustmentGreen>-15</crs:SaturationAdjustmentGreen>
      <crs:SaturationAdjustmentAqua>-5</crs:SaturationAdjustmentAqua>
      <crs:SaturationAdjustmentBlue>-5</crs:SaturationAdjustmentBlue>
      <crs:SaturationAdjustmentPurple>0</crs:SaturationAdjustmentPurple>
      <crs:SaturationAdjustmentMagenta>0</crs:SaturationAdjustmentMagenta>
      <crs:LuminanceAdjustmentRed>5</crs:LuminanceAdjustmentRed>
      <crs:LuminanceAdjustmentOrange>3</crs:LuminanceAdjustmentOrange>
      <crs:LuminanceAdjustmentYellow>-5</crs:LuminanceAdjustmentYellow>
      <crs:LuminanceAdjustmentGreen>-10</crs:LuminanceAdjustmentGreen>
      <crs:LuminanceAdjustmentAqua>0</crs:LuminanceAdjustmentAqua>
      <crs:LuminanceAdjustmentBlue>0</crs:LuminanceAdjustmentBlue>
      <crs:LuminanceAdjustmentPurple>0</crs:LuminanceAdjustmentPurple>
      <crs:LuminanceAdjustmentMagenta>0</crs:LuminanceAdjustmentMagenta>
      <crs:ColorGradeMidtoneHue>25</crs:ColorGradeMidtoneHue>
      <crs:ColorGradeMidtoneSat>5</crs:ColorGradeMidtoneSat>
      <crs:ColorGradeMidtoneLum>5</crs:ColorGradeMidtoneLum>
      <crs:ColorGradeShadowHue>220</crs:ColorGradeShadowHue>
      <crs:ColorGradeShadowSat>10</crs:ColorGradeShadowSat>
      <crs:ColorGradeShadowLum>0</crs:ColorGradeShadowLum>

      <!-- Masks (optional) -->
         <crs:MaskGroupBasedCorrections>
    <rdf:Seq>
     <rdf:li>
      <rdf:Description
       crs:What="Correction"
       crs:CorrectionAmount="1"
       crs:CorrectionActive="true"
       crs:CorrectionName="Face Skin" crs:CorrectionSyncID="B037E60E5B5BCA7495546111811E5B39" crs:LocalExposure="0" crs:LocalHue="0" crs:LocalSaturation="0" crs:LocalContrast="0" crs:LocalClarity="0" crs:LocalSharpness="0" crs:LocalBrightness="0" crs:LocalToningHue="0" crs:LocalToningSaturation="0" crs:LocalExposure2012="0.030" crs:LocalClarity2012="-0.030" crs:LocalLuminanceNoise="0" crs:LocalMoire="0" crs:LocalDefringe="0" crs:LocalTemperature="0" crs:LocalTint="0" crs:LocalGrain="0" crs:LocalCurveRefineSaturation="100">
      <crs:CorrectionMasks>
       <rdf:Seq>
        <rdf:li
         crs:What="Mask/Image"
         crs:MaskActive="true"
         crs:MaskName="Face Skin"
         crs:MaskBlendMode="0"
         crs:MaskInverted="false"
         crs:MaskSyncID="A22D41A36CEACCFEE73A0BB234243D03"
         crs:MaskValue="1"
         crs:MaskVersion="1"
         crs:MaskSubType="3"
         crs:MaskSubCategoryID="1"
         crs:ReferencePoint="0.500 0.500"
         crs:ErrorReason="0"/>
       </rdf:Seq>
      </crs:CorrectionMasks>
      </rdf:Description>
     </rdf:li>
     <rdf:li>
      <rdf:Description
       crs:What="Correction"
       crs:CorrectionAmount="1"
       crs:CorrectionActive="true"
       crs:CorrectionName="Hair" crs:CorrectionSyncID="579D5D35EAFFED03C2A17B7AE8375947" crs:LocalExposure="0" crs:LocalHue="0" crs:LocalSaturation="0" crs:LocalContrast="0" crs:LocalClarity="0" crs:LocalSharpness="0" crs:LocalBrightness="0" crs:LocalToningHue="0" crs:LocalToningSaturation="0" crs:LocalExposure2012="0.030" crs:LocalLuminanceNoise="0" crs:LocalMoire="0" crs:LocalDefringe="0" crs:LocalTemperature="0" crs:LocalTint="0" crs:LocalTexture="0.030" crs:LocalGrain="0" crs:LocalCurveRefineSaturation="100">
      <crs:CorrectionMasks>
       <rdf:Seq>
        <rdf:li
         crs:What="Mask/Image"
         crs:MaskActive="true"
         crs:MaskName="Hair"
         crs:MaskBlendMode="0"
         crs:MaskInverted="false"
         crs:MaskSyncID="8B35D9F699A15BBD06F56FC72D1A1D37"
         crs:MaskValue="1"
         crs:MaskVersion="1"
         crs:MaskSubType="1"
         crs:ReferencePoint="0.500 0.500"
         crs:ErrorReason="0"/>
       </rdf:Seq>
      </crs:CorrectionMasks>
      </rdf:Description>
     </rdf:li>
     <rdf:li>
      <rdf:Description
       crs:What="Correction"
       crs:CorrectionAmount="1"
       crs:CorrectionActive="true"
       crs:CorrectionName="Background" crs:CorrectionSyncID="49BDBA8DB757422C8171BF10FC620879" crs:LocalExposure="0" crs:LocalHue="0" crs:LocalSaturation="0" crs:LocalContrast="0" crs:LocalClarity="0" crs:LocalSharpness="0" crs:LocalBrightness="0" crs:LocalToningHue="0" crs:LocalToningSaturation="0" crs:LocalExposure2012="-0.030" crs:LocalLuminanceNoise="0" crs:LocalMoire="0" crs:LocalDefringe="0" crs:LocalTemperature="0" crs:LocalTint="0" crs:LocalGrain="0" crs:LocalCurveRefineSaturation="100">
      <crs:CorrectionMasks>
       <rdf:Seq>
        <rdf:li
         crs:What="Mask/Image"
         crs:MaskActive="true"
         crs:MaskName="Background"
         crs:MaskBlendMode="0"
         crs:MaskInverted="false"
         crs:MaskSyncID="ACD769545DB0533411BCBFC3D2C5D4CD"
         crs:MaskValue="1"
         crs:MaskVersion="1"
         crs:MaskSubType="0"
         crs:MaskSubCategoryID="22"
         crs:ReferencePoint="0.500 0.500"
         crs:ErrorReason="0"/>
       </rdf:Seq>
      </crs:CorrectionMasks>
      </rdf:Description>
     </rdf:li>
    </rdf:Seq>
   </crs:MaskGroupBasedCorrections>
      <!-- Processing Notes -->
      
    </rdf:Description>
  </rdf:RDF>
</x:xmpmeta>